assets/icons/notes.svg

<svg width="20" height="20" viewBox="0 0 20 20" fill="none" xmlns="http://www.w3.org/2000/svg">
<path d="M4.58496 8.74967V11.2497C4.58496 14.3922 4.58496 15.9638 5.56163 16.9397C6.53829 17.9155 8.10913 17.9163 11.2516 17.9163C14.3941 17.9163 15.9658 17.9163 16.9416 16.9397C17.9175 15.963 17.9183 14.3922 17.9183 11.2497V8.74967C17.9183 5.60717 17.9183 4.03551 16.9416 3.05967C15.965 2.08384 14.3941 2.08301 11.2516 2.08301C8.10913 2.08301 6.53746 2.08301 5.56163 3.05967C4.58579 4.03634 4.58496 5.60717 4.58496 8.74967Z" stroke="currentColor" stroke-width="1.25" stroke-linecap="round" stroke-linejoin="round"/>
<path d="M4.58496 8.74935H3.33496C3.00344 8.74935 2.6855 8.61765 2.45108 8.38323C2.21666 8.14881 2.08496 7.83087 2.08496 7.49935C2.08496 7.16783 2.21666 6.84989 2.45108 6.61547C2.6855 6.38104 3.00344 6.24935 3.33496 6.24935H6.25163M4.58496 14.5827H3.33496C3.00344 14.5827 2.6855 14.451 2.45108 14.2166C2.21666 13.9821 2.08496 13.6642 2.08496 13.3327C2.08496 13.0012 2.21666 12.6832 2.45108 12.4488C2.6855 12.2144 3.00344 12.0827 3.33496 12.0827H6.25163M9.16829 8.74935H12.5016M9.16829 5.41602H14.585" stroke="currentColor" stroke-width="1.25" stroke-linecap="round" stroke-linejoin="round"/>
</svg>

<svg xmlns="http://www.w3.org/2000/svg" width="20" height="20" fill="none" viewBox="0 0 20 20"><path stroke="currentColor" stroke-linecap="round" stroke-linejoin="round" stroke-width="1.25" d="M4.585 8.75v2.5c0 3.142 0 4.714.977 5.69.976.976 2.547.976 5.69.976 3.142 0 4.714 0 5.69-.976.976-.977.976-2.548.976-5.69v-2.5c0-3.143 0-4.714-.976-5.69-.977-.976-2.548-.977-5.69-.977s-4.715 0-5.69.977c-.976.976-.977 2.547-.977 5.69"/><path stroke="currentColor" stroke-linecap="round" stroke-linejoin="round" stroke-width="1.25" d="M4.585 8.75h-1.25a1.25 1.25 0 0 1 0-2.5h2.917m-1.667 8.333h-1.25a1.25 1.25 0 0 1 0-2.5h2.917m2.916-3.334h3.334M9.168 5.416h5.417"/></svg>
